X:84
T:Sailing Into Walpole's Marsh
S:The Andy Irvine / Paul Brady album
R: reel
M: 4/4
L: 1/8
K: Ador
A3G ABcA | GEE2 GED2 | EAAG ABcd | edgd BAdB |
AGG2 AGG2 | GEDE GED2 | A2AG ABcd | eBdB BAdB |
A3G c3A | GEE2 GED2 | EAAG ABcd | edgd BAdB |
AGG2 AGG2 | GEDE GED2 | A2AG ABcd | eBdB BAA2 ||
|: egg2 eaa2 | gedB cAA2 | egg2 eaab | age^c d2ef |
g3e a3f | gedB cAAB | c2gc acgc |[1 eage d2cd :|[2 eage d3c |]

%%newpage
%%scale .75
%%staffsep 35

